X:44
T:Namptwich Fair. JJo8.044
B:J.Johnson Choice Collection Vol 8 1758
Z:vmp.Simon Wilson 2013 www.village-music-project.org.uk
M:9/8
L:1/8
Q:3/8=120
K:Dm
|:B2G^F2AD2c|B2GG2B (AcA)|B2G^F2AC3|D2FF2B (AcA):|
|:BAB cBcd3|_e2cc2F AcA|BAB cBcd3|c2FF2B AcA:|
